X:1
T:Title
%%score { ( 1 4 ) | ( 2 3 5 ) }
L:1/8
Q:1/4=100
M:3/4
K:G
V:1 treble nm="Grand Piano"
V:4 treble 
V:2 bass 
V:3 bass 
V:5 bass 
V:1
 [DB]2 [Ec]2 [DB]2 | [DB]4 z2 | z2 F,2 A2 | [B,G]6 | [EG]2 [G,DF]2 [G,CE]2 | z2 G,2 B2 | A2 E2 B2 | %7
w: William~Stone * *|||||||
 A4[K:bass][K:treble] z2 | [DB]2 [Ec]2 [DB]2 | [DB]4 z2 | z2 F,2 A2 | [B,G]4 z2 | [EG]4 z2 | %13
w: ||||||
 z2 G,2 B2 | B4 z2 | [B,G]6 |[M:4/4] [Bd]2 cB [FA]2 c2 | B2 z C B, D2 C | [Bd]2 [Ac]B [FA]2 c2 | %19
w: ||||||
 B2 A,B, C2 D2 | [EGe]2 [Ge]e d2 B2 |[M:9/8] G6- G z z |[M:4/4] G4 z4 | G4 [CFA]4 | [B,DG]8- | %25
w: ||||||
 [B,DG]6 z2 |] %26
w: |
V:2
 z2 [D,G,]2 [D,G,]2 | z2 D,2 [D,F,C]2 | z2 D,2 [D,F,C]2 | z2 D,2 D,2 | z2 E,2 E,2 | %5
 z2 D,2 [D,G,D]2 | z2 [E,G,]2 [E,G,^C]2 | [D,C]4 z2 | z2 [D,G,]2 [D,G,]2 | z2 D,2 [D,F,C]2 | %10
 z2 D,2 [D,F,C]2 | z2 D,2 D,2 | z2 E,2 E,2 | z2 D,2 [D,D]2 | D2 E,2 [F,C]2 | [G,,G,]6 | %16
[M:4/4] z2[K:treble] AG z2 A2 | [B,D]4[K:bass] z4 | [D,B,]2 z[K:treble] G z2 A2 | %19
 [G,B,G]2[K:bass] F,G, A,2 B,2 | C2[K:treble] z G [B,DG]2 [G,DG]2 |[M:9/8][K:bass] .[G,B,]3 z3 z3 | %22
[M:4/4] [D,B,D]2 [^C,_B,]2 [D,=B,D]2 [D,B,D]2 | [D,B,D]4 D,4 | G,,8- | G,,6 z2 |] %26
V:3
 G,,6 | D,,6 | D,,6 | G,,6 | C,6 | G,,6 | A,,6 | .[F,A,]2 z2 E,^D, | G,,6 | D,,6 | D,,6 | G,,6 | %12
 C,6 | z2 z2 G,2- | G,2 z2 z2 | x6 |[M:4/4] [G,,G,]4[K:treble] D,4 | G2 z[K:bass] A, G, F,2 E, | %18
 z2 G,2[K:treble] D,4 | x2[K:bass] x6 | z2[K:treble] C2 z4 | %21
[M:9/8][K:bass] D2- [D,D]- [D,D] [^D,_B,]2- [D,B,] [D,B,^C]2 |[M:4/4] x8 | x8 | x8 | x8 |] %26
V:4
 x6 | z2 F,2 A2 | [CD]4 z2 | z2 G,2 G,2 | x6 | [B,D]4 z2 | ^C4 z2 | %7
 z[K:bass] G, F,2[K:treble] [^C_B]2 | x6 | z2 F,2 A2 | [CD]4 z2 | z2 G,2 [G,B,G]2 | %12
 z2 G,2 [G,CE]2 | [B,D]4 z2 | z2 ^C2 A2 | x6 |[M:4/4] x8 | x8 | x8 | x8 | x8 | %21
[M:9/8] z2 B,- B, ^C2- C G2 |[M:4/4] z2 E2 G2 G2 | x8 | x8 | x8 |] %26
V:5
 x6 | x6 | x6 | x6 | x6 | x6 | x6 | x6 | x6 | x6 | x6 | x6 | x6 | G,,6 | D,6 | x6 | %16
[M:4/4] x2[K:treble] x6 | x3[K:bass] x5 | x3[K:treble] x5 | x2[K:bass] x6 | x2[K:treble] x6 | %21
[M:9/8][K:bass] x9 |[M:4/4] x8 | x8 | x8 | x8 |] %26

